assets/images/editor/remove.svg

<svg viewBox="0 0 24 24" xmlns="http://www.w3.org/2000/svg"><path d="m20.485 3.511a12.01 12.01 0 1 0 3.515 8.489 12.009 12.009 0 0 0 -3.515-8.489zm-1.767 15.21a9.51 9.51 0 1 1 2.782-6.721 9.508 9.508 0 0 1 -2.782 6.721z"/><path d="m16.987 7.01a1.275 1.275 0 0 0 -1.8 0l-3.177 3.177-3.181-3.177a1.277 1.277 0 0 0 -1.805 1.806l3.176 3.177-3.176 3.178a1.277 1.277 0 0 0 1.805 1.806l3.176-3.177 3.177 3.178a1.277 1.277 0 0 0 1.8-1.806l-3.176-3.178 3.176-3.177a1.278 1.278 0 0 0 .005-1.807z"/></svg>

<svg xmlns="http://www.w3.org/2000/svg" viewBox="0 0 24 24"><title>delete-2-alternate</title><path d="M20.485,3.511A12.01,12.01,0,1,0,24,12,12.009,12.009,0,0,0,20.485,3.511Zm-1.767,15.21A9.51,9.51,0,1,1,21.5,12,9.508,9.508,0,0,1,18.718,18.721Z"/><path d="M16.987,7.01a1.275,1.275,0,0,0-1.8,0l-3.177,3.177L8.829,7.01A1.277,1.277,0,0,0,7.024,8.816L10.2,11.993,7.024,15.171a1.277,1.277,0,0,0,1.805,1.806L12.005,13.8l3.177,3.178a1.277,1.277,0,0,0,1.8-1.806l-3.176-3.178,3.176-3.177A1.278,1.278,0,0,0,16.987,7.01Z"/></svg>
